; generated by Slic3r 1.2.9 on 2015-09-28 at 20:38:20

; external perimeters extrusion width = 0.40mm
; perimeters extrusion width = 0.48mm
; infill extrusion width = 0.48mm
; solid infill extrusion width = 0.48mm
; top infill extrusion width = 0.48mm

M190 S60 ; set bed temperature
G28 ; home all axes
G28 Z0 ; extra z home for dual-height endstops
G1 Y20 Z0; move y ready for wiping, with nozzle close to bed
M109 S193; heat up nozzle ready for wiping
G92 E0 ; reset extruder position (needed for changing filament)
G1 E0.2; prime extrusion 0.2mm
G1 Y70 E1.2 F10000 ; 1st Fast wipe
G1 Y120 E2.2 F1000 ; 2nd slow wipe
G21 ; set units to millimeters
G90 ; use absolute coordinates
M82 ; use absolute distances for extrusion
G92 E0
G1 E-0.50000 F1800.00000
G92 E0
G1 Z0.300 F4800.000
G1 X41.625 Y71.017 F4800.000
G1 E0.50000 F1800.00000
G1 X43.000 Y70.662 E0.52797 F1440.000
G1 X157.000 Y70.662 E2.77358
G1 X158.441 Y71.055 E2.80300
G1 X159.483 Y72.125 E2.83242 F1440.000
G1 X159.838 Y73.500 E2.86039
G1 X159.838 Y126.500 E3.90440
G1 X159.445 Y127.941 E3.93382
G1 X158.375 Y128.983 E3.96324
G1 X157.000 Y129.338 E3.99121
G1 X43.000 Y129.338 E6.23682
G1 X41.559 Y128.945 E6.26624
G1 X40.517 Y127.875 E6.29566
G1 X40.162 Y126.500 E6.32363
G1 X40.162 Y73.500 E7.36764
G1 X40.555 Y72.059 E7.39706
G1 X41.582 Y71.059 E7.42529
G1 X41.925 Y71.370 F4800.000
G1 X42.021 Y71.288 E7.42778 F1440.000
G1 X43.000 Y71.081 E7.44749
G1 X157.000 Y71.081 E9.69310
G1 X158.320 Y71.473 E9.72022
G1 X159.212 Y72.521 E9.74734 F1440.000
G1 X159.419 Y73.500 E9.76704
G1 X159.419 Y126.500 E10.81106
G1 X159.027 Y127.820 E10.83817
G1 X157.979 Y128.712 E10.86529
G1 X157.000 Y128.919 E10.88500
G1 X43.000 Y128.919 E13.13061
G1 X41.680 Y128.527 E13.15773
G1 X40.788 Y127.479 E13.18485
G1 X40.581 Y126.500 E13.20455
G1 X40.581 Y73.500 E14.24857
G1 X40.973 Y72.180 E14.27569
G1 X41.879 Y71.409 E14.29914
G1 E13.79914 F1800.00000
G92 E0
G1 X112.254 Y115.746 F4800.000
G1 E0.50000 F1800.00000
G1 X112.254 Y88.254 E1.04155 F720.000
G1 X144.746 Y88.254 E1.68160
G1 X144.746 Y115.746 E2.22315
G1 X112.314 Y115.746 E2.86201
G1 X112.673 Y115.327 F4800.000
G1 X112.673 Y88.673 E3.38706 F720.000
G1 X144.327 Y88.673 E4.01060
G1 X144.327 Y115.327 E4.53565
G1 X112.733 Y115.327 E5.15802
G1 X113.050 Y114.950 F4800.000
G1 X113.050 Y89.050 E5.56679 F720.000
G1 X143.950 Y89.050 E6.05449
G1 X143.950 Y114.950 E6.46327
G1 X113.110 Y114.950 E6.95001
G1 X112.650 Y114.950 F4800.000
G1 E6.45001 F1800.00000
G92 E0
G1 X94.176 Y103.232 F4800.000
G1 E0.50000 F1800.00000
G1 X93.844 Y103.689 E0.51112 F360.000
G1 X93.569 Y103.946 E0.51854
G1 X93.093 Y104.249 E0.52965
G1 X92.743 Y104.387 E0.53707
G1 X92.188 Y104.493 E0.54819
G1 X91.812 Y104.493 E0.55561
G1 X91.226 Y104.382 E0.56735
G1 X90.687 Y104.128 E0.57909
G1 X90.408 Y103.925 E0.58589
G1 X90.156 Y103.689 E0.59269
G1 X89.806 Y103.206 E0.60443
G1 X89.585 Y102.650 E0.61622
G1 X89.515 Y102.272 E0.62379
G1 X89.516 Y101.686 E0.63534
G1 X89.664 Y101.109 E0.64707
G1 X89.824 Y100.768 E0.65449
G1 X90.156 Y100.311 E0.66561
G1 X90.431 Y100.054 E0.67303
G1 X90.907 Y99.751 E0.68414
G1 X91.257 Y99.613 E0.69156
G1 X91.812 Y99.507 E0.70268
G1 X92.188 Y99.507 E0.71010 F360.000
G1 X92.774 Y99.618 E0.72184
G1 X93.313 Y99.872 E0.73358
G1 X93.592 Y100.075 E0.74038
G1 X93.844 Y100.311 E0.74718
G1 X94.194 Y100.794 E0.75892
G1 X94.415 Y101.350 E0.77071
G1 X94.485 Y101.728 E0.77828
G1 X94.484 Y102.314 E0.78983
G1 X94.336 Y102.891 E0.80156
G1 X94.201 Y103.178 E0.80780
G1 X93.814 Y103.018 F4800.000
G1 X93.528 Y103.410 E0.81736 F360.000
G1 X93.311 Y103.614 E0.82322
G1 X92.902 Y103.874 E0.83277
G1 X92.625 Y103.983 E0.83863
G1 X92.149 Y104.074 E0.84819
G1 X91.851 Y104.074 E0.85405
G1 X91.357 Y103.980 E0.86397
G1 X90.901 Y103.766 E0.87389
G1 X90.675 Y103.601 E0.87939
G1 X90.472 Y103.410 E0.88489
G1 X90.176 Y103.003 E0.89481
G1 X89.990 Y102.534 E0.90475
G1 X89.934 Y102.234 E0.91076
G1 X89.935 Y101.739 E0.92051
G1 X90.060 Y101.251 E0.93042
G1 X90.186 Y100.982 E0.93628
G1 X90.472 Y100.590 E0.94584
G1 X90.689 Y100.386 E0.95170
G1 X91.098 Y100.126 E0.96125
G1 X91.375 Y100.017 E0.96711
G1 X91.851 Y99.926 E0.97667
G1 X92.149 Y99.926 E0.98253 F360.000
G1 X92.643 Y100.020 E0.99245
G1 X93.099 Y100.234 E1.00237
G1 X93.325 Y100.399 E1.00786
G1 X93.528 Y100.590 E1.01337
G1 X93.824 Y100.997 E1.02329
G1 X94.010 Y101.466 E1.03323
G1 X94.066 Y101.766 E1.03924
G1 X94.065 Y102.261 E1.04899
G1 X93.940 Y102.749 E1.05890
G1 X93.839 Y102.963 E1.06358
G1 X93.487 Y102.825 F4800.000
G1 X93.244 Y103.160 E1.07011 F360.000
G1 X93.079 Y103.315 E1.07368
G1 X92.730 Y103.536 E1.08021
G1 X92.520 Y103.620 E1.08378
G1 X92.113 Y103.697 E1.09031
G1 X91.887 Y103.697 E1.09388
G1 X91.474 Y103.618 E1.10051
G1 X91.094 Y103.439 E1.10714
G1 X90.916 Y103.310 E1.11061
G1 X90.756 Y103.160 E1.11408
G1 X90.509 Y102.820 E1.12072
G1 X90.354 Y102.429 E1.12736
G1 X90.311 Y102.199 E1.13104
G1 X90.312 Y101.787 E1.13755
G1 X90.416 Y101.380 E1.14418
G1 X90.513 Y101.175 E1.14775
G1 X90.756 Y100.840 E1.15428
G1 X90.921 Y100.685 E1.15785
G1 X91.270 Y100.464 E1.16438
G1 X91.480 Y100.380 E1.16795
G1 X91.887 Y100.303 E1.17448
G1 X92.113 Y100.303 E1.17805 F360.000
G1 X92.526 Y100.382 E1.18468
G1 X92.906 Y100.561 E1.19132
G1 X93.084 Y100.690 E1.19478
G1 X93.244 Y100.840 E1.19826
G1 X93.491 Y101.180 E1.20489
G1 X93.646 Y101.571 E1.21153
G1 X93.689 Y101.801 E1.21521
G1 X93.688 Y102.213 E1.22172
G1 X93.584 Y102.620 E1.22835
G1 X93.513 Y102.771 E1.23097
G1 X93.673 Y103.179 F4800.000
G1 E0.73097 F1800.00000
G92 E0
G1 X88.246 Y114.246 F4800.000
G1 E0.50000 F1800.00000
G1 X55.754 Y114.246 E1.14004 F720.000
G1 X55.754 Y89.754 E1.62250
G1 X88.246 Y89.754 E2.26255
G1 X88.246 Y114.186 E2.74382
G1 X87.827 Y113.827 F4800.000
G1 X56.173 Y113.827 E3.36736 F720.000
G1 X56.173 Y90.173 E3.83332
G1 X87.827 Y90.173 E4.45686
G1 X87.827 Y113.767 E4.92163
G1 X87.450 Y113.450 F4800.000
G1 X56.550 Y113.450 E5.40933 F720.000
G1 X56.550 Y90.550 E5.77076
G1 X87.450 Y90.550 E6.25845
G1 X87.450 Y113.390 E6.61894
G1 X87.450 Y113.850 F4800.000
G1 E6.11894 F1800.00000
G92 E0
G1 X54.336 Y102.891 F4800.000
G1 E0.50000 F1800.00000
G1 X54.176 Y103.232 E0.50742 F360.000
G1 X53.844 Y103.688 E0.51853
G1 X53.569 Y103.946 E0.52596
G1 X53.093 Y104.249 E0.53707
G1 X52.743 Y104.387 E0.54449
G1 X52.188 Y104.493 E0.55561
G1 X51.812 Y104.493 E0.56303
G1 X51.226 Y104.382 E0.57477
G1 X50.687 Y104.128 E0.58651
G1 X50.382 Y103.906 E0.59393
G1 X49.974 Y103.472 E0.60567
G1 X49.686 Y102.948 E0.61746
G1 X49.569 Y102.581 E0.62503
G1 X49.496 Y101.999 E0.63658
G1 X49.571 Y101.409 E0.64831
G1 X49.687 Y101.050 E0.65573
G1 X49.959 Y100.556 E0.66685
G1 X50.179 Y100.290 E0.67365
G1 X50.431 Y100.054 E0.68045
G1 X50.907 Y99.751 E0.69156
G1 X51.257 Y99.613 E0.69898
G1 X51.812 Y99.507 E0.71010
G1 X52.188 Y99.507 E0.71752 F360.000
G1 X52.774 Y99.618 E0.72926
G1 X53.313 Y99.872 E0.74100
G1 X53.592 Y100.075 E0.74780
G1 X53.844 Y100.312 E0.75460
G1 X54.176 Y100.768 E0.76572
G1 X54.336 Y101.109 E0.77314
G1 X54.484 Y101.686 E0.78488
G1 X54.484 Y102.314 E0.79724
G1 X54.351 Y102.833 E0.80780
G1 X53.940 Y102.749 F4800.000
G1 X53.814 Y103.018 E0.81366 F360.000
G1 X53.528 Y103.410 E0.82322
G1 X53.311 Y103.614 E0.82908
G1 X52.902 Y103.874 E0.83863
G1 X52.625 Y103.983 E0.84449
G1 X52.149 Y104.074 E0.85405
G1 X51.851 Y104.074 E0.85991
G1 X51.357 Y103.980 E0.86983
G1 X50.901 Y103.766 E0.87975
G1 X50.660 Y103.591 E0.88561
G1 X50.316 Y103.224 E0.89553
G1 X50.073 Y102.781 E0.90547
G1 X49.980 Y102.491 E0.91148
G1 X49.918 Y102.000 E0.92123
G1 X49.981 Y101.501 E0.93114
G1 X50.073 Y101.218 E0.93700
G1 X50.307 Y100.792 E0.94656
G1 X50.485 Y100.577 E0.95206
G1 X50.688 Y100.386 E0.95756
G1 X51.098 Y100.126 E0.96711
G1 X51.375 Y100.017 E0.97297
G1 X51.851 Y99.926 E0.98253
G1 X52.149 Y99.926 E0.98839 F360.000
G1 X52.643 Y100.020 E0.99831
G1 X53.099 Y100.234 E1.00823
G1 X53.325 Y100.399 E1.01373
G1 X53.528 Y100.590 E1.01923
G1 X53.814 Y100.982 E1.02879
G1 X53.940 Y101.251 E1.03464
G1 X54.065 Y101.739 E1.04456
G1 X54.065 Y102.261 E1.05484
G1 X53.955 Y102.691 E1.06358
G1 X53.584 Y102.620 F4800.000
G1 X53.487 Y102.825 E1.06715 F360.000
G1 X53.244 Y103.160 E1.07368
G1 X53.079 Y103.315 E1.07725
G1 X52.730 Y103.536 E1.08378
G1 X52.520 Y103.620 E1.08735
G1 X52.113 Y103.697 E1.09388
G1 X51.887 Y103.697 E1.09745
G1 X51.474 Y103.618 E1.10408
G1 X51.094 Y103.439 E1.11071
G1 X50.911 Y103.306 E1.11428
G1 X50.623 Y103.000 E1.12092
G1 X50.421 Y102.632 E1.12756
G1 X50.350 Y102.409 E1.13124
G1 X50.298 Y102.000 E1.13775
G1 X50.351 Y101.583 E1.14438
G1 X50.421 Y101.368 E1.14795
G1 X50.620 Y101.005 E1.15448
G1 X50.760 Y100.836 E1.15795
G1 X50.921 Y100.685 E1.16142
G1 X51.270 Y100.464 E1.16795
G1 X51.480 Y100.380 E1.17152
G1 X51.887 Y100.303 E1.17805
G1 X52.113 Y100.303 E1.18162 F360.000
G1 X52.526 Y100.382 E1.18825
G1 X52.906 Y100.561 E1.19489
G1 X53.084 Y100.690 E1.19836
G1 X53.244 Y100.840 E1.20183
G1 X53.487 Y101.175 E1.20836
G1 X53.584 Y101.380 E1.21193
G1 X53.688 Y101.787 E1.21856
G1 X53.688 Y102.213 E1.22529
G1 X53.599 Y102.562 E1.23098
G1 X53.724 Y102.797 F4800.000
G1 E0.73098 F1800.00000
G92 E0
G1 X43.996 Y125.504 F4800.000
G1 E0.50000 F1800.00000
G1 X43.996 Y74.496 E1.50477 F720.000
G1 X156.004 Y74.496 E3.71114
G1 X156.004 Y125.504 E4.71591
G1 X44.056 Y125.504 E6.92110
G1 X43.577 Y125.923 F4800.000
G1 X43.577 Y74.077 E7.94237 F720.000
G1 X156.423 Y74.077 E10.16524
G1 X156.423 Y125.923 E11.18651
G1 X43.637 Y125.923 E13.40820
G1 X43.200 Y126.300 F4800.000
G1 X43.200 Y73.700 E14.23839 F720.000
G1 X156.800 Y73.700 E16.03133
G1 X156.800 Y126.300 E16.86152
G1 X43.260 Y126.300 E18.65352
G1 X43.400 Y125.954 F4800.000
G1 X44.243 Y125.039 F4800.000
G1 X44.461 Y125.257 E18.65960 F1440.000
G1 X45.055 Y125.257 E18.67133
G1 X44.243 Y124.445 E18.69401
G1 X44.243 Y123.851 E18.70575
G1 X45.649 Y125.257 E18.74503
G1 X46.243 Y125.257 E18.75676
G1 X44.243 Y123.257 E18.81264
G1 X44.243 Y122.663 E18.82437
G1 X46.837 Y125.257 E18.89685
G1 X47.431 Y125.257 E18.90858
G1 X44.243 Y122.069 E18.99765
G1 X44.243 Y121.474 E19.00939
G1 X48.026 Y125.257 E19.11505
G1 X48.620 Y125.257 E19.12679
G1 X44.243 Y120.880 E19.24905
G1 X44.243 Y120.286 E19.26079
G1 X49.214 Y125.257 E19.39965
G1 X49.808 Y125.257 E19.41139
G1 X44.243 Y119.692 E19.56685
G1 X44.243 Y119.098 E19.57858
G1 X50.402 Y125.257 E19.75064
G1 X50.996 Y125.257 E19.76237
G1 X44.243 Y118.504 E19.95103
G1 X44.243 Y117.910 E19.96276
G1 X51.590 Y125.257 E20.16802
G1 X52.184 Y125.257 E20.17975
G1 X44.243 Y117.316 E20.40160
G1 X44.243 Y116.722 E20.41334
G1 X52.778 Y125.257 E20.65178
G1 X53.372 Y125.257 E20.66352
G1 X44.243 Y116.128 E20.91856
G1 X44.243 Y115.534 E20.93030
G1 X53.966 Y125.257 E21.20194
G1 X54.560 Y125.257 E21.21367
G1 X44.243 Y114.940 E21.50191
G1 X44.243 Y114.345 E21.51365
G1 X55.155 Y125.257 E21.81848
G1 X55.749 Y125.257 E21.83022
G1 X44.243 Y113.751 E22.15165
G1 X44.243 Y113.157 E22.16339
G1 X56.343 Y125.257 E22.50142
G1 X56.937 Y125.257 E22.51316
G1 X44.243 Y112.563 E22.86778
G1 X44.243 Y111.969 E22.87952
G1 X57.531 Y125.257 E23.25074
G1 X58.125 Y125.257 E23.26248
G1 X44.243 Y111.375 E23.65030
G1 X44.243 Y110.781 E23.66204
G1 X58.719 Y125.257 E24.06646
G1 X59.313 Y125.257 E24.07820
G1 X44.243 Y110.187 E24.49921
G1 X44.243 Y109.593 E24.51095
G1 X59.907 Y125.257 E24.94856
G1 X60.501 Y125.257 E24.96030
G1 X44.243 Y108.999 E25.41451
G1 X44.243 Y108.405 E25.42625
G1 X61.095 Y125.257 E25.89706
G1 X61.689 Y125.257 E25.90879
G1 X44.243 Y107.811 E26.39620
G1 X44.243 Y107.216 E26.40794
G1 X62.284 Y125.257 E26.91194
G1 X62.878 Y125.257 E26.92368
G1 X44.243 Y106.622 E27.44428
G1 X44.243 Y106.028 E27.45602
G1 X63.472 Y125.257 E27.99321
G1 X64.066 Y125.257 E28.00495
G1 X44.243 Y105.434 E28.55875
G1 X44.243 Y104.840 E28.57048
G1 X64.660 Y125.257 E29.14088
G1 X65.254 Y125.257 E29.15261
G1 X44.243 Y104.246 E29.73961
G1 X44.243 Y103.652 E29.75134
G1 X65.848 Y125.257 E30.35493
G1 E29.85493 F1800.00000
G92 E0
G1 X88.354 Y114.493 F4800.000
G1 E0.50000 F1800.00000
G1 X99.117 Y125.257 E0.80070 F1440.000
G1 X98.523 Y125.257 E0.81244
G1 X87.759 Y114.493 E1.11315
G1 X87.165 Y114.493 E1.12488
G1 X97.929 Y125.257 E1.42559
G1 X97.335 Y125.257 E1.43732
G1 X86.571 Y114.493 E1.73803
G1 X85.977 Y114.493 E1.74976
G1 X96.741 Y125.257 E2.05047
G1 X96.146 Y125.257 E2.06221
G1 X85.383 Y114.493 E2.36291
G1 X84.789 Y114.493 E2.37465
G1 X95.552 Y125.257 E2.67535
G1 X94.958 Y125.257 E2.68709
G1 X84.195 Y114.493 E2.98779
G1 X83.601 Y114.493 E2.99953
G1 X94.364 Y125.257 E3.30023
G1 X93.770 Y125.257 E3.31197
G1 X83.007 Y114.493 E3.61268
G1 X82.413 Y114.493 E3.62441
G1 X93.176 Y125.257 E3.92512
G1 X92.582 Y125.257 E3.93685
G1 X81.819 Y114.493 E4.23756
G1 X81.224 Y114.493 E4.24929
G1 X91.988 Y125.257 E4.55000
G1 X91.394 Y125.257 E4.56173
G1 X80.630 Y114.493 E4.86244
G1 X80.036 Y114.493 E4.87418
G1 X90.800 Y125.257 E5.17488
G1 X90.206 Y125.257 E5.18662
G1 X79.442 Y114.493 E5.48732
G1 X78.848 Y114.493 E5.49906
G1 X89.612 Y125.257 E5.79976
G1 X89.017 Y125.257 E5.81150
G1 X78.254 Y114.493 E6.11220
G1 X77.660 Y114.493 E6.12394
G1 X88.423 Y125.257 E6.42465
G1 X87.829 Y125.257 E6.43638
G1 X77.066 Y114.493 E6.73709
G1 X76.472 Y114.493 E6.74882
G1 X87.235 Y125.257 E7.04953
G1 X86.641 Y125.257 E7.06126
G1 X75.878 Y114.493 E7.36197
G1 X75.284 Y114.493 E7.37371
G1 X86.047 Y125.257 E7.67441
G1 X85.453 Y125.257 E7.68615
G1 X74.690 Y114.493 E7.98685
G1 X74.095 Y114.493 E7.99859
G1 X84.859 Y125.257 E8.29929
G1 X84.265 Y125.257 E8.31103
G1 X73.501 Y114.493 E8.61173
G1 X72.907 Y114.493 E8.62347
G1 X83.671 Y125.257 E8.92417
G1 X83.077 Y125.257 E8.93591
G1 X72.313 Y114.493 E9.23662
G1 X71.719 Y114.493 E9.24835
G1 X82.483 Y125.257 E9.54906
G1 X81.888 Y125.257 E9.56079
G1 X71.125 Y114.493 E9.86150
G1 X70.531 Y114.493 E9.87323
G1 X81.294 Y125.257 E10.17394
G1 X80.700 Y125.257 E10.18568
G1 X69.937 Y114.493 E10.48638
G1 X69.343 Y114.493 E10.49812
G1 X80.106 Y125.257 E10.79882
G1 X79.512 Y125.257 E10.81056
G1 X68.749 Y114.493 E11.11126
G1 X68.155 Y114.493 E11.12300
G1 X78.918 Y125.257 E11.42370
G1 X78.324 Y125.257 E11.43544
G1 X67.560 Y114.493 E11.73615
G1 X66.966 Y114.493 E11.74788
G1 X77.730 Y125.257 E12.04859
G1 X77.136 Y125.257 E12.06032
G1 X66.372 Y114.493 E12.36103
G1 X65.778 Y114.493 E12.37276
G1 X76.542 Y125.257 E12.67347
G1 X75.948 Y125.257 E12.68520
G1 X65.184 Y114.493 E12.98591
G1 X64.590 Y114.493 E12.99765
G1 X75.353 Y125.257 E13.29835
G1 X74.759 Y125.257 E13.31009
G1 X63.996 Y114.493 E13.61079
G1 X63.402 Y114.493 E13.62253
G1 X74.165 Y125.257 E13.92323
G1 X73.571 Y125.257 E13.93497
G1 X62.808 Y114.493 E14.23567
G1 X62.214 Y114.493 E14.24741
G1 X72.977 Y125.257 E14.54812
G1 X72.383 Y125.257 E14.55985
G1 X61.620 Y114.493 E14.86056
G1 X61.026 Y114.493 E14.87229
G1 X71.789 Y125.257 E15.17300
G1 X71.195 Y125.257 E15.18473
G1 X60.431 Y114.493 E15.48544
G1 X59.837 Y114.493 E15.49718
G1 X70.601 Y125.257 E15.79788
G1 X70.007 Y125.257 E15.80962
G1 X59.243 Y114.493 E16.11032
G1 X58.649 Y114.493 E16.12206
G1 X69.413 Y125.257 E16.42276
G1 X68.819 Y125.257 E16.43450
G1 X58.055 Y114.493 E16.73520
G1 X57.461 Y114.493 E16.74694
G1 X68.224 Y125.257 E17.04765
G1 X67.630 Y125.257 E17.05938
G1 X56.867 Y114.493 E17.36009
G1 X56.273 Y114.493 E17.37182
G1 X67.036 Y125.257 E17.67253
G1 X66.442 Y125.257 E17.68426
G1 X44.243 Y103.058 E18.30445
G1 X44.243 Y102.464 E18.31619
G1 X55.507 Y113.727 E18.63086
G1 X55.507 Y113.133 E18.64260
G1 X44.243 Y101.870 E18.95727
G1 X44.243 Y101.276 E18.96901
G1 X55.507 Y112.539 E19.28368
G1 X55.507 Y111.945 E19.29542
G1 X44.243 Y100.681 E19.61009
G1 X44.243 Y100.087 E19.62183
G1 X55.507 Y111.351 E19.93650
G1 X55.507 Y110.757 E19.94824
G1 X44.243 Y99.493 E20.26291
G1 X44.243 Y98.899 E20.27465
G1 X55.507 Y110.163 E20.58932
G1 X55.507 Y109.569 E20.60106
G1 X44.243 Y98.305 E20.91573
G1 X44.243 Y97.711 E20.92747
G1 X49.353 Y102.821 E21.07022
G1 X49.251 Y102.124 F4800.000
G1 X44.243 Y97.117 E21.21012 F1440.000
G1 X44.243 Y96.523 E21.22185
G1 X49.309 Y101.589 E21.36339
G1 X49.430 Y101.116 E21.37303
G1 X44.243 Y95.929 E21.51794
G1 X44.243 Y95.335 E21.52968
G1 X49.625 Y100.716 E21.68003
G1 X49.854 Y100.352 E21.68854
G1 X44.243 Y94.741 E21.84530
